X:142
T:Comely Garden
R:Reel
B:The Athole Collection
M:C|
L:1/8
K:A
e|cA c/d/e a2 (e=g|(fd =g2 B=GGB|cA c/d/e a2 (e=g|d=gBd eA A:|
e|c/B/A eA dee>a|=gdB=G Bdd>e|c/B/A e>A cee=g|d=gBd eAAe|
(c/B/A e>A cee>a|=gdB=G Bdd>e|(c/B/A ae fd=gd|B=GBd eAA||

